Sources/FrostedUI/Resources/Icons.xcassets/illuminati24.imageset/illuminati-24.svg

<svg width="24" height="24" viewBox="0 0 24 24" fill="none" xmlns="http://www.w3.org/2000/svg" data-fui-icon="true">
  <path
    d="M10.276 2.40039C11.0494 1.08649 12.9499 1.08646 13.7233 2.40039L23.5377 19.085C24.322 20.4182 23.3609 22.0996 21.8141 22.0996H2.18518C0.638352 22.0996 -0.322721 20.4182 0.461548 19.085L10.276 2.40039ZM19.3024 14.8447C18.2993 16.2692 15.8791 18.9999 11.9996 19C8.11955 18.9999 5.69788 16.2691 4.69495 14.8447L1.75452 19.8457C1.55845 20.179 1.79847 20.5996 2.18518 20.5996H21.8141C22.2008 20.5996 22.4408 20.179 22.2448 19.8457L19.3024 14.8447ZM15.5787 10.6309C15.6892 10.9844 15.7496 11.3601 15.7496 11.75C15.7496 13.821 14.0706 15.4999 11.9996 15.5C9.92857 15.5 8.24963 13.8211 8.24963 11.75C8.24963 11.3602 8.30918 10.9843 8.41956 10.6309C8.12216 10.8314 7.84517 11.0481 7.58948 11.2734C6.60972 12.1369 5.96732 13.096 5.66565 13.5996C6.33421 14.6623 8.46358 17.4999 11.9996 17.5C15.5352 17.4999 17.6638 14.6626 18.3326 13.5996C18.0309 13.0959 17.3894 12.1367 16.4098 11.2734C16.1539 11.0479 15.8764 10.8316 15.5787 10.6309ZM11.9996 9.5C10.757 9.5 9.74963 10.5074 9.74963 11.75C9.74963 12.9926 10.757 14 11.9996 14C13.2422 13.9999 14.2496 12.9926 14.2496 11.75C14.2496 10.5074 13.2422 9.50007 11.9996 9.5ZM12.4303 3.16113C12.2369 2.83299 11.7624 2.83302 11.569 3.16113L8.09436 9.06738C9.12121 8.47298 10.356 8.04206 11.7975 8.00488C11.8644 8.00133 11.9319 8 11.9996 8L12.192 8.00488C12.1943 8.005 12.1966 8.00476 12.1989 8.00488C13.6412 8.04153 14.8765 8.47283 15.9039 9.06738L12.4303 3.16113Z"
    fill="currentColor"
  />
</svg>

<svg xmlns="http://www.w3.org/2000/svg" width="24" height="24" fill="none" data-fui-icon="true" viewBox="0 0 24 24"><path fill="currentColor" d="M10.276 2.4c.773-1.314 2.674-1.314 3.447 0l9.815 16.685c.784 1.333-.177 3.015-1.724 3.015H2.185c-1.547 0-2.508-1.682-1.723-3.015zm9.026 12.445C18.3 16.269 15.88 19 12 19c-3.88 0-6.302-2.73-7.305-4.155l-2.94 5a.5.5 0 0 0 .43.755h19.63a.5.5 0 0 0 .43-.754zM15.58 10.63a3.75 3.75 0 1 1-7.16 0c-.297.2-.574.417-.83.642A10.1 10.1 0 0 0 5.666 13.6c.668 1.062 2.798 3.9 6.334 3.9s5.664-2.837 6.333-3.9a10 10 0 0 0-1.923-2.327 8 8 0 0 0-.831-.642M11.999 9.5a2.25 2.25 0 1 0 0 4.5 2.25 2.25 0 0 0 0-4.5m.431-6.339a.5.5 0 0 0-.861 0L8.094 9.067A7.7 7.7 0 0 1 12 8l.192.005h.007a7.7 7.7 0 0 1 3.705 1.062z"/></svg>
